!!!!SEGMENT: 065-1-BH-002-violoncello.krn
!!!COM: Chopin, Fryderyk
!!!OTL: Sonate pour Piano et Violoncelle
!!!OMV: 2
!!!OPS: Op. 65
!!!PPR: Breitkopf & Härtel
!!!PPP: Leipzig
!!!NIFC-rismID: Wbfc brak
!!!NIFC-shelfmark: PL-Wbfc 4692/n
**kern	**fing	**dynam
*staff1	*	*
*I"SCHERZO.	*	*
*clefF4	*	*
*k[b-]	*	*
*M3/4	*	*
*kcancel	*	*
*>A	*	*>A
4A	.	f
=1	=1	=1
4A'>	.	.
(>\8AL	.	.
8B-J)	.	.
(>\8B-L	.	.
8AJ)	.	.
=2	=2	=2
(>\8AL	.	.
8d	.	.
8c#X	.	.
8dJ	.	.
4e)^>	.	sf
=3	=3	=3
4f'>	.	.
(>\8AL	.	[
8B-)	.	.
(>\8B-	.	.
8AJ)	.	.
=4	=4	=4
(>\8AL	.	.
8F	.	.
8E	.	.
8DJ	.	.
4E)	.	.
=5	=5	=5
4AA'<	.	.
4r	.	.
*clefG2	*	*
!	!	!LO:DY:a
(<4e	.	p
=6	=6	=6
4f)	.	.
(<2d	.	.
!!LO:LB:g=original
=7	=7	=7
4a)	.	.
(<2e	.	.
=8	=8	=8
4f)	.	.
(<2d	.	.
=9	=9	=9
2.a)	.	.
=10	=10	=10
(>2e	.	.
4cc#X)	.	.
=11	=11	=11
2.cc#X	.	.
=12	=12	=12
2.rdd	.	.
!LO:TX:a:B:t=1	!	!
.	.	.
.	.	.
*clefF4	*	*
=13	=13	=13
8A	.	.
8r	.	.
(>\8B-XL	.	.
8A	.	.
8c	.	.
8B-J	.	.
=14	=14	=14
8G)	.	.
8r	.	.
(>8A\L	.	.
8G	.	.
8B-	.	.
8AJ	.	.
=15	=15	=15
8F\)	.	.
8r	.	.
(>8G\L	.	.
8F	.	.
8A	.	.
8GJ	.	.
=16	=16	=16
8E)	.	.
8r	.	.
(>8F\L	.	<
8E	.	.
8G	.	.
8FJ)	.	.
!!LO:LB:g=original
=17	=17	=17
8D	.	.
8r	.	[
4r	.	.
4r	.	.
=18	=18	=18
4r	.	.
4r	.	.
!	!	!LO:DY:rj
4A'> 4E'> 4AA'>	.	f
=19	=19	=19
4A'> 4D'>	.	.
4r	.	.
4r	.	.
=20	=20	=20
4r	.	.
4r	.	.
(>4E	.	.
=21	=21	=21
4c)	.	.
(>8A\L	.	.
8B-)	.	.
(>8B-	.	.
(>8AJ)	.	.
=22	=22	=22
4G)	.	.
.	.	.
(>8G\L	.	.
8A)	.	.
(>8A	.	.
8GJ	.	.
=23	=23	=23
4F)	.	.
(>8F\L	.	.
8G)	.	.
(>8G	.	.
8FJ	.	.
=24	=24	=24
4E)	.	.
(>8E\L	.	.
8F)	.	.
(>8F	.	.
8EJ	.	.
=25	=25	=25
2.D)	.	.
!!LO:LB:g=original
=26	=26	=26
(>2c	.	.
.	.	<
4B-)	.	.
*clefG2	*	*
=27	=27	=27
2.a-X	.	[
=28	=28	=28
2.rdd	.	.
!LO:TX:a:B:t=1	!	!
.	.	.
.	.	.
=29	=29	=29
(<2.f	.	>
=30	=30	=30
4B-	.	]
4e-X	.	.
4d)	.	.
=31	=31	=31
2.c#X	.	.
=32	=32	=32
(<2.d	3	.
=33	=33	=33
4dd)	3 0	.
(<8dL	.	.
8e)	.	.
(<8e	.	.
8dJ)	.	.
=34	=34	=34
(<8dL	.	.
8g	.	.
8f#X	.	.
8gJ	.	.
4a)	.	sf
=35	=35	=35
4b-\	.	.
(<8dL	.	.
8e-y)	.	.
(<8e-	.	.
8dJ)	.	.
*clefF4	*	*
=36	=36	=36
(>\8dL	.	.
8B-	.	.
8A	.	.
8GJ)	.	.
4B- 4D 4GG	.	.
!!LO:LB:g=original
=37	=37	=37
4E-X	.	.
4r	.	.
4r	.	.
=38	=38	=38
4r	.	.
4r	.	.
4EE-X	.	.
=39	=39	=39
4E-X 4AA-X	.	.
4r	.	.
4r	.	.
=40	=40	=40
4r	.	.
4r	.	.
!	!	!LO:DY:rj
4G#X	.	p
=41	=41	=41
!LO:TX:i:b:t=dolce	!	!
(>4A#X	.	.
4f#X)	.	.
(>4f#	.	.]
=42	=42	=42
4f#X	.	.
2c#X)	.	.
=43	=43	=43
(>4d#X	.	.
4g#X	.	.
4f#X)	.	.
=44	=44	=44
(>4f#X	.	.
2c#X)	.	.
*clefG2	*	*
=45	=45	=45
2.d#X	.	.
=46	=46	=46
(>2f#X	.	.
4dd#X)	.	.
=47	=47	=47
2.dd#X	.	.
=48	=48	=48
2.rdd	.	.
!LO:TX:a:B:t=1	!	!
.	.	.
.	.	.
*clefF4	*	*
!!LO:LB:g=original
=49	=49	=49
8Bn	.	.
8r	.	.
(>\8cL	.	.
8B	.	.
8d	.	.
8cJ	.	.
=50	=50	=50
8A)	.	.
8r	.	.
(>\8BnL	.	.
8A	.	.
8c	.	.
8BJ	.	.
=51	=51	=51
8G)	.	.
8r	.	.
(>\8AL	.	.
8G	.	.
8Bn	.	.
8AJ	.	.
=52	=52	=52
8F#X)	.	.
8r	.	.
(>\8GL	.	.
8F#	.	.
8A	.	.
8GJ	.	.
=53	=53	=53
8E)	.	.
8r	.	.
4r	.	.
4r	.	.
=54	=54	=54
*	*	*^
2.G#X 2.BBn	.	<	.
=55	=55	=55	=55
2.A 2.C	.	.	.
.	.	.	<
=56	=56	=56	=56
2.Bn 2.D	.	[	.
.	.	.	.
*	*	*v	*v
=57	=57	=57
4c 4E-X	.	.
(>\8AL	.	.
8Bn)	.	.
(>8B	.	.
8AJ)	.	.
!!LO:LB:g=original
=58	=58	=58
(>8D\L	.	.
8A	.	.
8G#X	.	.
8AJ	.	.
4d	.	.
=59	=59	=59
4G)	.	.
(>8G\L	.	.
8A)	.	.
(>8A	.	.
8GJ)	.	.
=60	=60	=60
*	*^	*
(>8G\L	.	.	.
8c	.	.	.
8e	.	.	.
8fJ	.	.	.
4g	.	1	.
*clefG2	*	*	*
*	*v	*v	*
=61	=61	=61
!	!	!LO:DY:a:rj
4a-X)	.	fz
!	!	!LO:DY:a
(<8a-L	.	p
8b-J)	.	.
(<8b-L	.	.
8a-J)	.	.
=62	=62	=62
4a-X	.	.
(<2e-X	.	.
=63	=63	=63
4f)	.	.
(<8a-XL	.	.
8b-J)	.	.
(<8b-L	.	.
8a-J)	.	.
=64	=64	=64
(<4a-X	.	.
8e-XL	.	.
8g-X	.	.
8f	.	.
8e-J	.	.
=65	=65	=65
4f)	.	.
*clefF4	*	*
(>8A-X\L	.	.
8B-)	.	.
(>8B-	.	f>
8A-J)	.	]]
!!LO:LB:g=original
=66	=66	=66
2A-X	.	.
4C	.	.
=67	=67	=67
2A-X	.	.
4C-X	.	.
=68	=68	=68
4A-X	.	.
4BB-	.	.
8A-\L	.	.
8B-J	.	.
=69	=69	=69
4c-X	.	.
2a-X\ 2Bn\	.	.
=70	=70	=70
4g 4cn	.	.
2f#X 2A	.	.
=71	=71	=71
4g 4B-X	.	.
2c#X 2E	.	.
=72	=72	=72
4d 4F	.	.
2d 2F	.	.
=73	=73	=73
4A	.	.
2A 2E 2AA	.	.
=74	=74	=74
*^	*	*
2A	(>4F	.	.
.	.	.	.
.	4D)	.	.
4A/	4D 4AA	.	.
*v	*v	*	*
=75	=75	=75
4c#X 4E 4AA	.	.
2A 2E 2AA	.	.
=76	=76	=76
*^	*	*
2A	(>4F	.	.
.	4D)	.	.
4A/	4D 4AA	.	.
*v	*v	*	*
!!LO:LB:g=original
=77	=77	=77
2.f	.	.
=78	=78	=78
(>2e	.	.
4d)	.	.
=79	=79	=79
(>4c#X	.	.
4cn	.	.
4B-X)	.	.
=80	=80	=80
(>4E	.	.
4F	.	.
4D)	.	.
=81	=81	=81
4AA	.	.
!	!	!LO:DY:rj
(<8AAL	.	p
8BB-J)	.	.
(<8BB-L	.	.
8AAJ)	.	.
=82	=82	=82
2.rF	.	.
=83	=83	=83
2.rF	.	.
=84	=84	=84
2.rF	.	.
=85	=85	=85
4AA'<	.	.
(<8AAL	.	.
8BB-)	.	.
(<8BB-	.	>
8AAJ)	.	]
=86	=86	=86
2.rF	.	.
=87	=87	=87
2.rF	.	.
=88	=88	=88
2.rF	.	.
=89	=89	=89
4A	.	f
(>\8AL	.	.
8B-)	.	.
(>8B-	.	.
8AJ)	.	.
=90	=90	=90
(>8A\L	.	.
8d	.	.
8c#X	.	.
8dJ	.	f
4e)^<	.	sfz
!!LO:LB:g=original
=91	=91	=91
4f	.	.
(>8A\L	.	.
8B-)	.	.
(>8B-	.	.
8AJ)	.	.
=92	=92	=92
(>8A\L	.	.
8F	.	.
8En	.	.
8DJ	.	.
4E)	.	.
=93	=93	=93
4AA'<	.	.
4r	.	.
*clefG2	*	*
(<4e	.	p
=94	=94	=94
4f)	.	.
(<2d	.	.
=95	=95	=95
4a)	.	.
(<2e	.	.
=96	=96	=96
4f)	.	.
(<2d	.	.
=97	=97	=97
2.a)	.	.
.	.	<
=98	=98	=98
(>2e	.	.
4cc#X)	.	.
.	.	[
=99	=99	=99
2.cc#X	.	[[
=100	=100	=100
2.rdd	.	.
!LO:TX:a:B:t=1	!	!
.	.	.
.	.	.
*clefF4	*	*
=101	=101	=101
8A	.	.
8r	.	.
(>8B-\L	.	.
8A	.	.
8c	.	.
8B-J	.	.
!!LO:LB:g=original
=102	=102	=102
8G)	.	.
8r	.	.
(>8A\L	.	.
8G	.	.
8B-	.	.
8AJ	.	.
=103	=103	=103
8F)	.	.
8r	.	.
(>8G\L	.	.
8F	.	.
8A	.	.
8GJ	.	.
=104	=104	=104
8E)	.	.
8r	.	.
(>8F\L	.	<
8E	.	.
8G	.	.
8FJ	.	[
=105	=105	=105
!	!	!LO:DY:rj
4D)	.	f
4r	.	.
4r	.	.
=106	=106	=106
4r	.	.
4r	.	.
!LO:TX:t=P:vertical slur from 4AA to 4A:problem	!	!
4A 4E 4AA	.	.
=107	=107	=107
!LO:TX:t=P:vertical slur:problem	!	!
4A 4D	.	.
4r	.	.
4r	.	.
=108	=108	=108
4r	.	.
4r	.	.
(>4E	.	.
=109	=109	=109
4c)	.	.
(>\8AL	.	.
8B-X)	.	.
(>8B-	.	.
8AJ	.	.
=110	=110	=110
4G)	.	.
(>8G\L	.	.
8A)	.	.
(>8A	.	.
8GJ	.	.
!!LO:LB:g=original
=111	=111	=111
4F)	.	.
(>8F\L	.	.
8G)	.	.
(>8G	.	.
8FJ	.	.
=112	=112	=112
4E)	.	.
(>8E\L	.	.
8F)	.	.
(>8F	.	.
8EJ	.	.
=113	=113	=113
2.D)	.	.
=114	=114	=114
(>2c	.	.
4B-)	.	.
*clefG2	*	*
=115	=115	=115
2.a-X	.	.
=116	=116	=116
2.rdd	.	.
!LO:TX:a:B:t=1	!	!
.	.	.
.	.	.
=117	=117	=117
(<2.f	.	.
=118	=118	=118
4B-	.	.
4e-X	.	.
4d)	.	.
=119	=119	=119
!	!	!LO:HP:a
(<2.c#X	.	<
=120	=120	=120
2.d#X	.	.
=121	=121	=121
2.e)	.	[
=122	=122	=122
(<4B-	.	.
4e	.	.
4d#X)	.	.
!LO:CL:ed	!	!
*clefG2	*	*
=123	=123	=123
2.e	.	.
!!LO:LB:g=original
=124	=124	=124
2.fn	.	.
=125	=125	=125
2.f#X	.	.
=126	=126	=126
!	!	!LO:HP:a
(<4Bn	.	<
4f#X	.	.
4e#X)	.	.
=127	=127	=127
2.f#X	.	.
.	.	[
=128	=128	=128
!LO:TX:t=P:cresc nad nutą:problem	!	!
!	!	!LO:HP:a
2.g	.	<
=129	=129	=129
2.g#X	.	.
=130	=130	=130
(<2.a	.	.
=131	=131	=131
4cc#X\)	.	.
!	!	!LO:DY:a
4bn\	.	f
4a/	.	.
=132	=132	=132
(<4g	.	.
4d	.	.
4e)	.	.
=133||	=133||	=133||
*k[f#c#]	*	*
!LO:TX:a:B:t=Cantabile.	!	!
(<2.f#	.	.
=134	=134	=134
2.g#X)	.	.
=135	=135	=135
4b\	.	.
4a	.	.
4g#X	.	.
=136	=136	=136
(<2b/	.	.
4a)	.	.
=137	=137	=137
(<2.e	.	.
!!LO:LB:g=original
=138	=138	=138
!LO:TX:t=P:there is no ending of the slur:problem	!	!
2.f#)	.	.
=139	=139	=139
(<4a	.	.
4g	.	.
4f#)	.	.
=140	=140	=140
(<2a	.	.
4g)	.	.
*clefF4	*	*
=141	=141	=141
2.B	.	.
=142	=142	=142
(>2c#	.	.
4B)	.	.
=143	=143	=143
(>4A	.	<
4B	.	.
4c#)	.	.
=144	=144	=144
(>4d	.	.
4e	.	.
4f#)	.	[
*clefG2	*	*
=145	=145	=145
(>4e	.	.
4cc#	.	.
4dd)	.	.
=146	=146	=146
(>4cc#\	.	.
4b\	.	.
4e	.	.
=147	=147	=147
4a)	.	.
4e	.	>
[>(<4a	.	.
=148	=148	=148
4a]	.	.
4g	.	.
4f#)	.	]
=149	=149	=149
(<2.g	.	.
=150	=150	=150
2.a#X)	.	.
!!LO:PB:g=original
=151	=151	=151
(>4cc#	.	.
4b	.	.
4a#X)	.	.
=152	=152	=152
(>2cc#	.	.
4b)	.	.
=153	=153	=153
(<2.f#	.	.
=154	=154	=154
2.g#X)	.	.
=155	=155	=155
(<4b/	.	.
4a	.	.
4g#X)	.	.
=156	=156	=156
(<2b/	.	.
4a)	.	.
=157	=157	=157
(>2.a	.	.
.	.	<
=158	=158	=158
2.b-X	.	.
=159	=159	=159
2.bn)	.	.
=160	=160	=160
(>2.ccn	.	.
=161	=161	=161
2cc#X)	.	.
[>(>4dd	.	.
=162	=162	=162
4dd]	.	[
4d	.	.
4g)	.	.
=163	=163	=163
(<2.e	.	.
=164	=164	=164
4d)	.	.
4r	.	.
4c#	.	.
!!LO:LB:g=original
=165!||:	=165!||:	=165!||:
(<2c#	.	.
4f#)	.	.
=166	=166	=166
(<2f#	.	.
.	.	<
4g#X)	.	.
=167	=167	=167
(>4f#	.	.
4e#X	.	.
4cc#)	.	.
.	.	[
=168	=168	=168
[>2.cc#	.	.
=169	=169	=169
2cc#]	.	.
(<4en	.	.
=170	=170	=170
(<4e)	.	.
4g#X	.	.
4f#)	.	.
=171	=171	=171
(<4e	.	<
4d#X	.	.
4b\)	.	[
=172	=172	=172
[>(<2.b\	.	.
=173	=173	=173
2b\]	.	.
[<4dn	.	.
=174	=174	=174
4d]	.	.
4f#	.	.
4e)	.	.
=175	=175	=175
!	!	!LO:HP:a
(<4d	.	<
4c#	.	.
4g)	.	[
=176	=176	=176
[<2.g	.	.
=177	=177	=177
4g]	.	.
4g	.	.
4g	.	.
=178	=178	=178
(<2g	.	.
4f#)	.	.
!!LO:LB:g=original
=179	=179	=179
(<2.d#X	.	.
=180	=180	=180
2e	.	.
4e#X)	.	.
=181	=181	=181
(<2.f#	.	.
=182	=182	=182
2.g#X)	.	.
=183	=183	=183
(</4b	.	.
4a	.	.
4g#X)	.	.
=184	=184	=184
(</2b	.	.
4a)	.	.
=185	=185	=185
(<2.e	.	.
=186	=186	=186
2.f#)	.	.
=187	=187	=187
(<4a	.	.
4g	.	.
4f#)	.	.
=188	=188	=188
(<2a	.	.
4g)	.	.
=189	=189	=189
(<2.g	.	<
=190	=190	=190
2.a-X	.	.
=191	=191	=191
2.an)	.	.
=192	=192	=192
(>2.b-X	.	[
=193	=193	=193
4bn	.	.
4.cc#)	.	.
(>8dd	.	.
!!LO:LB:g=original
=194	=194	=194
2d	.	.
4g)	.	.
=195	=195	=195
!!LO:TX:a:B:t=1|a.
*>A1	*	*>A1
[<(<2.e	.	.
=196	=196	=196
4e]	.	.
4d	.	.
4c#)	.	.
=197:|!	=197:|!	=197:|!
!!LO:TX:a:B:t=2|a.
*>A2	*	*>A2
(<2.e	.	.
=198	=198	=198
2.f#)	.	.
=199	=199	=199
*>C	*	*>C
(<2.g	.	.
=200	=200	=200
2.g#X	.	.
=201	=201	=201
4a)	.	.
4r	.	.
4r	.	.
=202	=202	=202
(<2.f#t>	.	.
8qqe/L	.	.
8qqf#/J)	.	.
=203	=203	=203
(<2.g	.	.
=204	=204	=204
2.g#X	.	.
=205	=205	=205
2.a)	.	.
=206	=206	=206
(<2.b-X\	.	.
=207	=207	=207
2.a)	.	.
=208	=208	=208
[>2.b-X	.	.
!!LO:LB:g=original
=209	=209	=209
8b-]	.	.
8r	.	.
(<8a/L	.	.
8g	.	.
8b-X	.	.
8aJ	.	.
=210	=210	=210
8g)	.	.
8r	.	.
(<8fnL	.	.
8e	.	.
8g	.	.
8fJ	.	.
=211	=211	=211
8e)	.	.
8r	.	.
(>8dL	.	.
8c#	.	.
8e	.	.
8dJ	.	.
*clefF4	*	*
=212	=212	=212
8c#)	.	.
8r	.	.
(>8B-X\L	.	.
8A	.	<
8cn	.	.
8B-J	.	.
.	.	[
=213||	=213||	=213||
*k[b-]	*	*
4A)	.	f
(>\8AL	.	.
8B-)	.	.
(>\8B-	.	.
8AJ)	.	.
=214	=214	=214
(>8A\L	.	.
8d	.	.
8c#X	.	.
8dJ	.	.
4e)	.	.
=215	=215	=215
4f	.	.
(>8A\L	.	.
8B-)	.	.
(>8B-\	.	.
8AJ)	.	.
!!LO:LB:g=original
=216	=216	=216
(>8A\L	.	.
8F	.	.
8E	.	.
8DJ	.	.
4E)	.	.
=217	=217	=217
4AA	.	.
4r	.	.
*clefG2	*	*
(<4e	.	p
=218	=218	=218
4f)	.	.
(<2d	.	.
=219	=219	=219
4a)	.	.
(<2e	.	.
=220	=220	=220
4f)	.	.
(<2d	.	.
=221	=221	=221
2.a)	.	.
=222	=222	=222
(>2e	.	.
4cc#X)	.	.
=223	=223	=223
2.cc#X	.	.
=224	=224	=224
2.r	.	.
!LO:TX:a:B:t=1	!	!
.	.	.
.	.	.
*clefF4	*	*
=225	=225	=225
8A	.	.
8r	.	.
(>8B-\L	.	.
8A	.	.
8c	.	.
8B-J	.	.
=226	=226	=226
8G)	.	.
8r	.	.
(>8A\L	.	.
8G	.	.
8B-	.	.
8AJ	.	.
!!LO:LB:g=original
=227	=227	=227
8F)	.	.
8r	.	.
(>8G\L	.	.
8F	.	.
8A	.	.
8GJ	.	.
=228	=228	=228
8E)	.	.
8r	.	.
(>8F\L	.	.
8E	.	.
8G	.	.
8FJ	.	.
=229	=229	=229
4D)	.	.
4r	.	.
4r	.	.
=230	=230	=230
4r	.	.
4r	.	.
!	!	!LO:DY:rj
4A 4E 4AA	.	f
=231	=231	=231
4A 4D	.	.
4r	.	.
4r	.	.
=232	=232	=232
4r	.	.
4r	.	.
(>4E	.	.
=233	=233	=233
4c)	.	.
(>8A\L	.	.
8B-)	.	.
(>8B-	.	.
8AJ	.	.
=234	=234	=234
4G)	.	.
(>8G\L	.	.
8A)	.	.
(>8A	.	.
8GJ	.	.
=235	=235	=235
4F)	.	.
(>8F\L	.	.
8G)	.	.
(>8G	.	.
8FJ	.	.
!!LO:LB:g=original
=236	=236	=236
4E)	.	.
(>8E\L	.	.
8F)	.	.
(>8F	.	.
8EJ	.	.
=237	=237	=237
2.D)	.	.
=238	=238	=238
(>2c	.	<
4B-)	.	[
*clefG2	*	*
=239	=239	=239
2.a-X	.	.
=240	=240	=240
2.rdd	.	.
!LO:TX:a:B:t=1	!	!
.	.	.
.	.	.
=241	=241	=241
!	!	!LO:DY:rj
(<2.f	.	f
=242	=242	=242
4B-	.	.
4e-X	.	.
4d)	.	.
=243	=243	=243
(<2.c#X	.	.
=244	=244	=244
2.d)	.	.
*clefF4	*	*
=245	=245	=245
(>2.cn	.	.
=246	=246	=246
4F#X	.	.
4B-	.	.
4A)	.	.
=247	=247	=247
2.G	.	.
=248	=248	=248
(>4C#X	.	.
4F	.	.
4E)	.	.
!!LO:LB:g=original
=249	=249	=249
(>2.E-X	.	.
=250	=250	=250
2.D)	.	.
=251	=251	=251
(<2.BB-	.	.
=252	=252	=252
!	!	!LO:HP:a
2.GG	.	>
=253	=253	=253
4DD)	.	.
(<8DDL	.	.
8EE-XJ)	.	.
(<8EE-L	.	.
8DDJ)	.	.
=254	=254	=254
!	!	!LO:HP:a
(<4DD	.	<
!	!	!LO:HP:a
2GG	.	[>]]
=255	=255	=255
4DD)	.	.
(<8DDL	.	]
8EE-X)	.	.
(<8EE-	.	.
8DDJ)	.	.
=256	=256	=256
!	!	!LO:HP:a
(<4DD	.	<
!	!	!LO:HP:a
2GG	.	[>]]
=257	=257	=257
4DD)	.	.
(<8DDL	.	]
!LO:TX:b:a:i:t=smorz.	!	!
8EE-X)	.	.
(<8EE-	.	.
8DDJ)	.	.
=258	=258	=258
4r	.	.
(<8DDL	.	.
8EE-X)	.	.
(<8EE-	.	.
8DDJ)	.	.
=259;>	=259	=259
!	!	!LO:DY:rj
4A/ 4D/ 4AA/ 4DD/	.	ff
4r	.	.
4r	.	.
==	==	==
*-	*-	*-
!!!RDF**kern: > = above
!!!RDF**kern: < = below
!!!RDF**kern: N = linked
!!!RDF**dynam: < = "cresc.", fontstyle="italic"
!!!RDF**dynam: > = "dim.", fontstyle="italic"
!!!ENC: Jędrzej Mróz
!!!END: 2020-03-25
!!!EED: Mateusz Mrugas
!!!EST: 2020-03-31
!!!RDF**kern: j = marked note, color="magenta", text="extra)"
